frontend/public/svg/hand gestures/touch-hold.svg

<svg width="129" height="154" viewBox="0 0 129 154" fill="none" xmlns="http://www.w3.org/2000/svg">
<g clip-path="url(#clip0)">
<path d="M110.167 76.8791C107.972 71.2143 102.744 68.3107 96.8591 69.4743C95.4401 69.8248 94.0736 70.3624 92.7963 71.0725C92.2713 71.3318 91.7357 71.5976 91.1844 71.8477C90.4381 69.9981 89.2639 68.3527 87.7576 67.0452C86.252 65.7385 84.4569 64.8076 82.5207 64.3293C77.8961 63.1072 74.1084 64.1324 71.2573 67.3682C69.1163 63.9237 66.892 62.2225 63.8835 61.7086C60.7272 61.1677 58.1763 62.3866 55.4033 64.4429C55.3108 63.1177 55.2277 61.8228 55.1451 60.5508C54.939 57.3466 54.7438 54.3208 54.4438 51.282C54.3263 50.1006 54.2148 48.9192 54.1019 47.7377C53.5958 42.4142 53.0729 36.9082 52.1146 31.5689C51.3939 28.1403 50.0697 24.8673 48.2035 21.9024C46.9932 19.852 45.4362 18.5806 43.5761 18.1238C41.5946 17.6374 39.3335 18.135 37.0396 19.5606C33.3753 21.8387 32.4928 25.6225 32.1338 28.664C31.8476 31.0872 31.8009 33.572 31.7563 35.9749L31.7345 37.0959C31.6955 38.9559 31.6544 40.8155 31.6111 42.6748C31.4654 49.1154 31.3139 55.7746 31.3172 62.3262C31.3172 67.1831 31.4683 71.9586 31.6258 77.0137C31.688 78.9998 31.7475 81.0075 31.8044 83.0363C31.7551 82.9949 31.7071 82.9529 31.6598 82.9122C31.2175 82.5315 30.8356 82.2027 30.4241 81.9001C23.759 77.0111 16.6316 75.2711 9.23796 76.7374C7.61575 77.015 6.09179 77.7029 4.81053 78.7359C3.52928 79.769 2.53347 81.1125 1.91791 82.6385C1.31396 84.2616 1.12877 86.0108 1.37918 87.7245C1.6296 89.4375 2.30762 91.0606 3.35076 92.4429C4.41078 93.8028 5.61475 95.0439 6.94203 96.1446L7.40159 96.5529C12.2862 100.802 16.3515 105.909 19.3968 111.622C23.5599 119.647 28.245 128.118 33.7215 137.519C35.1457 139.964 37.4344 141.972 39.2696 143.448C42.6208 146.144 46.6524 148.381 51.957 150.489C56.8326 152.449 62.039 153.456 67.2937 153.455C73.1469 153.385 78.943 152.298 84.4241 150.245C89.3099 148.39 93.7506 145.528 97.4576 141.845C101.164 138.161 104.054 133.739 105.939 128.865C111.125 115.513 113.141 100.979 112.109 84.4362C111.847 81.8338 111.192 79.2853 110.167 76.8791ZM37.9043 91.0304C37.754 82.229 37.565 73.669 37.3996 66.4565C37.3563 64.5492 37.2846 62.6406 37.2137 60.7326C37.0739 56.9842 36.9295 53.1079 37.007 49.3051C37.131 43.1171 37.5519 36.8274 37.9575 30.7452L38.0854 28.8188C38.3112 25.415 39.5229 23.6994 42.1279 23.1165C44.24 24.4949 45.5492 26.7704 46.1274 30.0685C46.9965 35.0217 47.6082 40.0165 47.9599 45.033C48.4141 51.5793 48.7559 58.2444 49.0861 64.691C49.2554 67.9936 49.4306 71.297 49.6113 74.6017C49.7268 76.6573 50.5603 77.8459 52.1611 78.2358C53.7796 78.6329 55.1179 77.7698 56.1267 75.6761L56.5927 74.7027C57.5234 72.7567 58.4857 70.7444 59.5798 68.8613C60.2427 67.718 61.4426 66.4362 63.4182 66.8267C65.1069 67.1634 66.2298 68.3927 66.5809 70.2882C66.8362 71.8555 66.9963 73.4367 67.062 75.023L67.1178 75.9071C67.1283 76.2477 67.1092 76.5884 67.06 76.9257C66.9465 77.5046 66.9721 78.1019 67.1342 78.669C67.5037 79.643 68.2184 80.4463 69.1432 80.9261C69.4432 81.0613 69.7681 81.1335 70.0969 81.1375C70.4257 81.1421 70.7519 81.0784 71.0558 80.9511C71.359 80.8244 71.6334 80.636 71.8605 80.3978C72.0882 80.1602 72.2641 79.878 72.3777 79.5695C72.5883 79.0687 72.7577 78.5515 72.8844 78.0231C72.95 77.7777 73.0156 77.5322 73.0911 77.2907C73.2322 76.8345 73.3615 76.3718 73.4895 75.9124C73.7501 74.8727 74.0894 73.8541 74.5049 72.8656L74.5357 72.8C75.5077 70.6538 76.4259 68.6224 79.1458 68.8173C81.34 68.9703 84.1996 69.8393 85.3633 73.1085C85.8956 74.8504 86.2165 76.6494 86.3196 78.4675L86.399 79.2676C86.4344 79.6062 86.4463 79.9554 86.4587 80.3046C86.5152 81.8903 86.5795 83.6873 88.8261 84.2944C91.1614 84.9245 92.0606 83.3211 92.8521 81.9047C93.0123 81.6179 93.1718 81.3311 93.3437 81.0633C93.5045 80.8119 93.664 80.5586 93.8235 80.3046C94.5081 79.1297 95.3055 78.0251 96.206 77.0065C97.4767 75.6695 98.9127 75.0302 100.265 75.2114C101.594 75.3893 102.798 76.3633 103.656 77.9542C105.762 81.6323 106.774 85.8355 106.572 90.0689C106.042 97.945 105.112 105.925 104.283 112.789C103.561 118.757 101.142 124.257 98.872 128.85C95.3574 135.96 89.3433 140.785 80.4867 143.6C67.7977 147.634 55.3491 145.432 43.4825 137.055C42.2195 136.193 41.1158 135.118 40.221 133.877C38.2365 131.038 36.4097 128.091 34.7486 125.051C32.0353 119.997 29.377 114.747 26.8495 109.461C22.8504 101.09 17.7358 94.4966 11.2124 89.3115C10.1071 88.4281 9.17534 87.3477 8.46427 86.1243C8.26474 85.8132 8.13413 85.4627 8.08103 85.0965C8.02793 84.7309 8.05346 84.3575 8.15631 84.0024C8.31429 83.6007 8.55477 83.2358 8.86201 82.9325C9.16924 82.6293 9.53659 82.393 9.94044 82.2401C11.2303 81.6638 12.6281 81.3692 14.0409 81.3757C14.8033 81.379 15.564 81.4525 16.3128 81.5956C22.0446 82.6648 25.8873 84.7972 28.407 88.306C29.2935 89.6994 29.9772 91.2116 30.4372 92.7973C30.577 93.201 30.7152 93.6033 30.859 93.9997C31.4201 95.5401 32.2053 96.9677 34.131 96.9841H34.1656C35.8517 96.9841 37.0765 95.9339 37.5281 94.1047C37.7866 93.1005 37.9141 92.0675 37.9075 91.0304H37.9043Z" fill="black"/>
<path d="M109.776 4.76464C106.723 3.64887 103.432 2.6913 100.075 3.23869C88.4252 5.13682 80.8596 9.86313 76.2659 18.1126C74.5147 21.233 73.4836 24.7053 73.248 28.2756C73.0124 31.8458 73.5782 35.4237 74.9033 38.7472C76.1661 41.9573 78.1305 44.8445 80.6528 47.1975C83.1751 49.5504 86.1917 51.3097 89.4819 52.3466C91.7909 53.0166 94.1484 53.504 96.5336 53.8043C97.2313 53.9073 97.8384 53.9966 98.3155 54.0872L98.3516 54.0944H98.3877C106.902 53.8588 112.408 52.5467 117.393 49.5657C123.733 45.7753 127.297 40.0769 127.988 32.6288C129.213 19.4226 117.997 7.77066 109.776 4.76464ZM113.566 43.3002C109.59 45.7405 104.937 46.9757 98.9253 47.1779C98.6122 47.1398 98.2689 47.1017 97.902 47.061C97.0114 46.9619 96.0026 46.8497 95.0004 46.6915C88.4166 45.6558 83.5473 41.9725 81.2895 36.3214C80.1212 33.2458 79.7563 29.923 80.2288 26.667C80.702 23.4111 81.9977 20.3295 83.9929 17.7135C87.4334 13.234 91.8342 10.7255 97.0731 10.2582C97.3481 10.2339 97.6323 10.2215 97.923 10.2215C99.1478 10.2323 100.364 10.4161 101.537 10.7675C107.696 12.4714 113.043 16.3197 116.615 21.6181C119.746 26.2584 120.714 30.413 119.662 34.6963C119.287 36.4707 118.552 38.1494 117.504 39.6292C116.455 41.109 115.115 42.3583 113.566 43.3002Z" fill="black"/>
<path d="M57.4276 36.2097C59.1774 37.5532 60.9797 36.6475 62.1835 35.8487C64.7432 34.1508 66.3321 31.6291 67.0404 28.14C68.1942 22.4811 66.7903 16.2656 63.1884 11.0884C61.4511 8.51414 59.2125 6.31681 56.6065 4.6277C54.0004 2.93858 51.0805 1.79237 48.0212 1.25771C35.3342 -0.711304 22.5498 7.97863 17.9745 17.1595C14.5537 24.0215 15.8427 32.3826 21.1079 37.4922C22.2558 38.608 24.0666 40.0776 26.5915 40.0776H26.6934C28.2686 40.0526 29.9567 39.7651 30.5218 37.8203C31.083 35.8861 29.6462 34.9325 28.5974 34.2302C23.1399 30.5908 21.7024 24.6778 24.9369 19.1659C28.8591 12.4811 35.1608 8.29893 42.2276 7.68919C47.3274 7.66031 51.9112 9.42192 55.1233 12.6157C56.5496 14.0324 57.6801 15.7184 58.4495 17.5756C59.219 19.4329 59.612 21.4244 59.6055 23.4347C59.6114 26.444 58.4089 28.9782 57.0693 31.5241C56.535 32.5434 55.4172 34.666 57.4276 36.2097Z" fill="black"/>
<path d="M108.429 25.0609H108.403C107.583 25.0641 106.758 25.133 105.96 25.1999C105.54 25.2354 105.122 25.2702 104.702 25.2958C103.962 25.3424 103.221 25.3805 102.393 25.4271L101.518 25.473C101.462 24.5987 101.411 23.7442 101.359 22.9041C101.228 20.7067 101.101 18.6307 100.921 16.5455C100.67 13.6255 99.1923 12.9508 97.9964 12.8989C96.2742 12.8333 95.1308 14.1013 94.9024 16.4064C94.5743 19.7537 94.229 23.7331 94.1706 27.8267C94.1227 28.4755 94.2152 29.1271 94.4417 29.7369C94.6681 30.3469 95.0239 30.9007 95.4833 31.361C96.3411 32.0911 97.4431 32.4691 98.5681 32.419C98.8247 32.4183 99.0807 32.4043 99.3353 32.3771C101.293 32.1696 103.273 31.8755 105.186 31.5894C105.901 31.4831 106.616 31.378 107.332 31.2743L107.451 31.2573C107.987 31.1962 108.517 31.0906 109.035 30.9416C111.024 30.3076 112.028 29.008 111.719 27.463C111.499 26.3662 110.75 25.0609 108.429 25.0609Z" fill="black"/>
</g>
<defs>
<clipPath id="clip0">
<rect width="127.33" height="152.927" fill="white" transform="translate(0.798096 0.788086)"/>
</clipPath>
</defs>
</svg>

<svg xmlns="http://www.w3.org/2000/svg" width="129" height="154" fill="none" viewBox="0 0 129 154"><g fill="#000" clip-path="url(#a)"><path d="M110.167 76.88c-2.195-5.666-7.423-8.57-13.308-7.406a16.5 16.5 0 0 0-4.063 1.599c-.525.259-1.06.525-1.612.775a12.6 12.6 0 0 0-8.663-7.519c-4.625-1.222-8.413-.197-11.264 3.04-2.14-3.445-4.365-5.147-7.374-5.66-3.156-.541-5.707.678-8.48 2.734-.092-1.325-.175-2.62-.258-3.892-.206-3.204-.401-6.23-.701-9.269q-.175-1.772-.342-3.544c-.506-5.324-1.03-10.83-1.987-16.17a29.6 29.6 0 0 0-3.912-9.666c-1.21-2.05-2.767-3.321-4.627-3.778-1.981-.487-4.242.011-6.536 1.437-3.665 2.278-4.547 6.061-4.906 9.103-.286 2.423-.333 4.908-.378 7.31l-.021 1.122q-.059 2.79-.124 5.579c-.146 6.44-.297 13.1-.294 19.651 0 4.857.151 9.633.309 14.688q.093 2.979.178 6.022l-.144-.124c-.442-.38-.824-.71-1.236-1.012-6.665-4.889-13.792-6.629-21.186-5.163a9.65 9.65 0 0 0-7.32 5.901 10.31 10.31 0 0 0 1.433 9.805 24 24 0 0 0 3.591 3.702l.46.408a53 53 0 0 1 11.995 15.069c4.163 8.025 8.848 16.496 14.325 25.897 1.424 2.445 3.712 4.453 5.548 5.929 3.35 2.696 7.382 4.933 12.687 7.041a41.1 41.1 0 0 0 15.337 2.966 50.6 50.6 0 0 0 17.13-3.21 37.24 37.24 0 0 0 21.515-21.38c5.186-13.352 7.202-27.886 6.17-44.429a25.9 25.9 0 0 0-1.942-7.557M37.904 91.03c-.15-8.801-.339-17.361-.504-24.573-.044-1.908-.115-3.816-.186-5.724-.14-3.749-.285-7.625-.207-11.428.124-6.188.545-12.478.95-18.56l.128-1.926c.226-3.404 1.438-5.12 4.043-5.703 2.112 1.379 3.421 3.654 4 6.953.868 4.953 1.48 9.948 1.832 14.964.454 6.546.796 13.211 1.126 19.658q.255 4.954.525 9.91c.116 2.056.95 3.245 2.55 3.635 1.619.397 2.957-.466 3.966-2.56l.466-.973c.93-1.946 1.893-3.959 2.987-5.842.663-1.143 1.863-2.425 3.838-2.034 1.689.336 2.812 1.566 3.163 3.461.255 1.568.415 3.149.481 4.735l.056.884q.015.511-.058 1.019a3.7 3.7 0 0 0 .074 1.743 4.23 4.23 0 0 0 2.01 2.257 2.39 2.39 0 0 0 2.716-.528c.228-.238.404-.52.518-.828q.316-.752.506-1.547c.066-.245.132-.49.207-.732.141-.456.27-.92.399-1.379q.391-1.562 1.015-3.046l.03-.066c.973-2.146 1.89-4.178 4.61-3.983 2.195.153 5.055 1.022 6.218 4.292.533 1.741.853 3.54.957 5.359l.079.8c.035.338.047.687.06 1.037.056 1.585.12 3.382 2.367 3.99 2.335.63 3.235-.974 4.026-2.39.16-.287.32-.574.492-.842l.48-.758a21 21 0 0 1 2.382-3.299c1.27-1.337 2.707-1.976 4.059-1.795 1.329.178 2.533 1.152 3.391 2.743a22.25 22.25 0 0 1 2.916 12.115c-.53 7.876-1.46 15.856-2.289 22.72-.722 5.968-3.141 11.468-5.411 16.061-3.515 7.11-9.529 11.935-18.385 14.75-12.69 4.034-25.138 1.832-37.004-6.545a13.2 13.2 0 0 1-3.262-3.178 95 95 0 0 1-5.472-8.826 376 376 0 0 1-7.9-15.59c-3.999-8.371-9.113-14.964-15.637-20.15a11.4 11.4 0 0 1-2.748-3.187 2.6 2.6 0 0 1-.308-2.122A3.1 3.1 0 0 1 9.94 82.24a9.9 9.9 0 0 1 4.1-.864 12.4 12.4 0 0 1 2.273.22c5.732 1.069 9.574 3.201 12.094 6.71a17.4 17.4 0 0 1 2.03 4.491q.208.607.422 1.203c.561 1.54 1.346 2.968 3.272 2.984h.035c1.686 0 2.91-1.05 3.362-2.88.259-1.004.386-2.037.38-3.074zm71.872-86.265c-3.053-1.116-6.344-2.074-9.701-1.526-11.65 1.898-19.215 6.624-23.81 14.874a24 24 0 0 0-1.362 20.634 23.14 23.14 0 0 0 14.579 13.6 46 46 0 0 0 7.052 1.457c.697.103 1.304.193 1.781.283l.037.007h.036c8.514-.235 14.02-1.547 19.005-4.528 6.34-3.79 9.904-9.49 10.595-16.937 1.225-13.206-9.991-24.858-18.212-27.864m3.79 38.535c-3.976 2.44-8.629 3.676-14.64 3.878q-.472-.056-1.024-.117c-.89-.1-1.9-.211-2.902-.37-6.583-1.035-11.453-4.719-13.71-10.37a19.36 19.36 0 0 1 2.703-18.608c3.44-4.479 7.841-6.988 13.08-7.455a10 10 0 0 1 .85-.036 13 13 0 0 1 3.614.546 26.8 26.8 0 0 1 15.078 10.85c3.131 4.64 4.099 8.795 3.047 13.078a13.3 13.3 0 0 1-6.096 8.604"/><path d="M57.428 36.21c1.75 1.343 3.552.438 4.756-.361 2.56-1.698 4.148-4.22 4.856-7.709 1.154-5.659-.25-11.874-3.852-17.052a23.1 23.1 0 0 0-15.167-9.83C35.334-.712 22.55 7.978 17.975 17.16c-3.421 6.861-2.132 15.223 3.133 20.332 1.148 1.116 2.959 2.586 5.483 2.586h.102c1.576-.025 3.264-.313 3.829-2.258.561-1.934-.876-2.888-1.925-3.59-5.457-3.64-6.895-9.552-3.66-15.064C28.859 12.48 35.16 8.299 42.227 7.689c5.1-.029 9.684 1.733 12.896 4.927a15.18 15.18 0 0 1 4.483 10.819c.005 3.009-1.197 5.543-2.537 8.09-.534 1.018-1.652 3.141.359 4.685m51.001-11.15h-.026c-.82.004-1.645.073-2.443.14-.42.035-.838.07-1.258.096-.74.046-1.481.085-2.309.131l-.875.046-.159-2.569a239 239 0 0 0-.438-6.358c-.251-2.92-1.729-3.595-2.925-3.647-1.722-.066-2.865 1.202-3.094 3.507-.328 3.348-.673 7.327-.731 11.42a4.53 4.53 0 0 0 1.312 3.535 4.45 4.45 0 0 0 3.085 1.058q.386 0 .767-.042c1.958-.207 3.938-.502 5.851-.788q1.072-.159 2.146-.315l.119-.017a10 10 0 0 0 1.584-.315c1.989-.634 2.993-1.934 2.684-3.479-.22-1.097-.969-2.402-3.29-2.402"/></g><defs><clipPath id="a"><path fill="#fff" d="M.798.788h127.33v152.927H.798z"/></clipPath></defs></svg>
